src/assets/svg/@manager/dictionary/dictionary.svg

<?xml version="1.0" standalone="no"?><!DOCTYPE svg PUBLIC "-//W3C//DTD SVG 1.1//EN" "http://www.w3.org/Graphics/SVG/1.1/DTD/svg11.dtd"><svg t="1696660608722" class="icon" viewBox="0 0 1024 1024" version="1.1" xmlns="http://www.w3.org/2000/svg" p-id="5797" xmlns:xlink="http://www.w3.org/1999/xlink" width="200" height="200"><path d="M966.4 147.2V57.6h-83.2v192h83.2z m-83.2 179.2h57.6v192h-57.6zM0 70.4V928c0 57.6 44.8 96 96 96h729.6v-57.6H96c-19.2 0-32-12.8-32-32s12.8-32 32-32h729.6V0H70.4C38.4 6.4 6.4 38.4 0 70.4z m268.8 147.2h416V288h-416v-70.4z m0 192h416V480h-416v-70.4z m0 198.4h416v70.4h-416V608zM128 217.6h70.4V288H128v-70.4z m0 192h70.4V480H128v-70.4z m0 198.4h70.4v70.4H128V608z m755.2-6.4h121.6V800H883.2z" p-id="5798"></path></svg>

<?xml version="1.0" standalone="no"?><!DOCTYPE svg PUBLIC "-//W3C//DTD SVG 1.1//EN" "http://www.w3.org/Graphics/SVG/1.1/DTD/svg11.dtd"><svg t="1685503304876" class="icon" viewBox="0 0 1024 1024" version="1.1" xmlns="http://www.w3.org/2000/svg" p-id="2385" xmlns:xlink="http://www.w3.org/1999/xlink" width="200" height="200"><path d="M966.4 147.2V57.6h-83.2v192h83.2zM883.2 326.4h57.6v192h-57.6zM0 70.4v857.6c0 57.6 44.8 96 96 96h729.6v-57.6H96c-19.2 0-32-12.8-32-32s12.8-32 32-32h729.6V0H70.4C38.4 6.4 6.4 38.4 0 70.4z m268.8 147.2h416v70.4H268.8V217.6z m0 192h416v70.4H268.8V409.6z m0 198.4h416v70.4H268.8V608zM128 217.6h70.4v70.4H128V217.6z m0 192h70.4v70.4H128V409.6z m0 198.4h70.4v70.4H128V608zM883.2 601.6h121.6v198.4h-121.6z" fill="#707070" p-id="2386"></path></svg>
